X: 7805
T:Shaalds of Foula  Foula Reel 
R:Jig
O:Shetland
M:6/8
K:G
D|EGG G2e|edB BAB|G2B A2B|G2A GED|\
EGG G2e|edB BAB|G2B A2B|d3 D3:|
|:edB ABd|edB BAG|{f}g2B A2B|G2A GED|\
edB ABd|edB BAG|{f}g2B A2B|d3 D3:|
